X:71
T:New Sabbath or 150 Psalm,2voices. WHG.070
R:hymn 16
S:W.H.Giles MS,Bampton,Oxfordshire,1839p70
O:England
H:donated by Mrs W.R.Kettlewell to VWML,Apr 1927.
A:Bampton, Oxfordshire
N:Psalm 150 New Version – Words by Tate & Brady.
N:Tune: Ramsgate by Thomas Clark of Canterbury, 1775-1856.
N:He co-edited the Union Tune Book, first published in 1837.
Z:PJHeadford – VMP 2009
M:3/4
L:1/8
Q:1/4=90
K:D
V:1 clef=treble
d2|A>B A2A>G|F>GA2 d2|B>ed2 c2|d4 f2|\
e>cA2 f2|e>cA2 d2|B>AG2 F2|F2E2 A2|
B4 A2|d4 A2|B2e2 d2|d2c2 d2|\
A>GF>A d>f|f2e2 d2|e/f/g/e/ d2c2|d4|]
V:2 clef=bass
D,2|D,4 D,2|D,4 F,2|G,2B,2 A,,2|D,4 D,2|\
A,4 A,2|A,4 F,2|(G,>F,) E,2D,2|A,,4 F,2|
G,4 E,2|D,4 C,2|B,,2C,2 D,2|A,4 D,2|\
D,4 D,2|(D,2E,2) F,2|G,2B,2 A,,2|D,4|]

